X: 29260
T: New Millennium, The
R: reel
M: 4/4
K: Eminor
"Em7"BEEG FEDE-|EFAG "D"FFED|"Em7"B,EED EFG"Am7"B-|B A2 G "Bm7"FAGF|
[1"Em7"BEEG FEDE-|EFAG "D"FFEG|"Cmaj7"BAAB "Bm7"F2FA|GEFD E2 EG:|
[2"Em7"BEEG FEDE-|EFAG "D"FFEG|"Cmaj7"BAAB "Bm7"FEFA|GEFD E3 D||
|:"Em7"EBBe defg-|g "D"f2 e "Em7"gfed|"Bm7"BddA Bdef-|f "A"e2 d "Bm7"fedA|
[1"Em7"BeeB defg-|g "D"f2 e "Em7"gfed|"Cmaj7"Beed "Bm7"B2 AG|FAAG E3 D:|
[2"Em7"BeeB defa-|a "D"g2 f egfd|"Cma7"eBBe "Bm7"d2BA|GBAG EB,EG||

